!!!OTL: Dorothea coronata
**kern
*staff1
=1-
*clefF4
*k[]
*met(c|)
*M2/2
1D
1D
=2
1AA
1D
=3
1F
1C
=4
2AA/
1C
2D\
=5
1AA
0D
!!linebreak:original
=6
1D
1G
=7
1.A
2.D\
4E\
4F\
4G\
2A\
1G
2A\
1E
=8
0F
!!linebreak:original
=9
1.D
2GG/
=10
1AA
1FF
=11
2C/
2AA/
1GG
=12
2AA/
2GG/
1.FF
2GG/
2AA/
1C
2D\
1AA
=13
0D
==
*-
!!title: @{OTL}, @{GTL}, ed. @{ENC}
!!!pag:
!!!GTL: Hymnbook D
!!!EFL: 
!!!YEM: Creative Commons CC/BY/NC/SA 4.0
!!!ENC: Marcin Konik
!!!END: 2015-0m-dd
!!!EED: Marcin Konik
!!!EEV: 
!!!ONB: Encoded in vim by Marcin Konik
!!!CharacterEncoding: utf-8
!!!RDF**kern: l=long note in original notation
!!!RDF**kern: i=editorial accidental
!!muse2ps: z14jc180F
!!!COM: Anonim
!!!CDT: [?]
!!!TXO: Polish
!!!ODT: 
!!!GTL: Hymnbook D
!!!ARL: Opactwo św. Wojciecha, Staniątki 
!!!voices:	1
